public/assets/icons/scraper.svg

<svg width="20" height="21" viewBox="0 0 20 21" fill="none" xmlns="http://www.w3.org/2000/svg">
<path d="M19.05 9.90719L10.5164 18.3791C9.47094 19.4169 8.05303 20 6.57456 20C5.0961 20 3.67818 19.4169 2.63275 18.3791C1.58732 17.3412 1 15.9335 1 14.4658C1 12.998 1.58732 11.5904 2.63275 10.5525L11.1664 2.08062C11.8633 1.38871 12.8086 1 13.7943 1C14.7799 1 15.7252 1.38871 16.4221 2.08062C17.1191 2.77254 17.5106 3.71097 17.5106 4.68948C17.5106 5.66799 17.1191 6.60643 16.4221 7.29834L7.87921 15.7702C7.53074 16.1162 7.0581 16.3105 6.56528 16.3105C6.07245 16.3105 5.59982 16.1162 5.25134 15.7702C4.90286 15.4243 4.70709 14.955 4.70709 14.4658C4.70709 13.9765 4.90286 13.5073 5.25134 13.1614L13.135 5.344" stroke="black" stroke-width="1.5" stroke-linecap="round" stroke-linejoin="round"/>
</svg>

<svg xmlns="http://www.w3.org/2000/svg" width="20" height="21" fill="none"><path stroke="#000" stroke-linecap="round" stroke-linejoin="round" stroke-width="1.5" d="m19.05 9.907-8.534 8.472A5.596 5.596 0 0 1 6.575 20a5.595 5.595 0 0 1-3.942-1.62A5.514 5.514 0 0 1 1 14.465c0-1.468.587-2.876 1.633-3.913l8.533-8.472A3.73 3.73 0 0 1 13.794 1c.986 0 1.931.389 2.628 1.08a3.676 3.676 0 0 1 1.089 2.61c0 .978-.392 1.916-1.089 2.608L7.88 15.77a1.865 1.865 0 0 1-2.628 0 1.838 1.838 0 0 1 0-2.609l7.884-7.817"/></svg>
